www/assets/icons/groups.svg

<svg xmlns="http://www.w3.org/2000/svg" width="24" height="24" viewBox="0 0 24 24" fill='currentColor'><path d="M12 12.75c1.63 0 3.07.39 4.24.9 1.08.48 1.76 1.56 1.76 2.73V18H6v-1.61c0-1.18.68-2.26 1.76-2.73 1.17-.52 2.61-.91 4.24-.91M4 13c1.1 0 2-.9 2-2s-.9-2-2-2-2 .9-2 2 .9 2 2 2m1.13 1.1c-.37-.06-.74-.1-1.13-.1-.99 0-1.93.21-2.78.58A2.01 2.01 0 0 0 0 16.43V18h4.5v-1.61c0-.83.23-1.61.63-2.29M20 13c1.1 0 2-.9 2-2s-.9-2-2-2-2 .9-2 2 .9 2 2 2m4 3.43c0-.81-.48-1.53-1.22-1.85A6.95 6.95 0 0 0 20 14c-.39 0-.76.04-1.13.1.4.68.63 1.46.63 2.29V18H24zM12 6c1.66 0 3 1.34 3 3s-1.34 3-3 3-3-1.34-3-3 1.34-3 3-3"/></svg>

<svg width="24" height="24" viewBox="0 0 24 24" xmlns="http://www.w3.org/2000/svg" fill='currentColor'><path d="M12 12.75C13.63 12.75 15.07 13.14 16.24 13.65C17.32 14.13 18 15.21 18 16.38V18H6V16.39C6 15.21 6.68 14.13 7.76 13.66C8.93 13.14 10.37 12.75 12 12.75ZM4 13C5.1 13 6 12.1 6 11C6 9.9 5.1 9 4 9C2.9 9 2 9.9 2 11C2 12.1 2.9 13 4 13ZM5.13 14.1C4.76 14.04 4.39 14 4 14C3.01 14 2.07 14.21 1.22 14.58C0.48 14.9 0 15.62 0 16.43V18H4.5V16.39C4.5 15.56 4.73 14.78 5.13 14.1ZM20 13C21.1 13 22 12.1 22 11C22 9.9 21.1 9 20 9C18.9 9 18 9.9 18 11C18 12.1 18.9 13 20 13ZM24 16.43C24 15.62 23.52 14.9 22.78 14.58C21.93 14.21 20.99 14 20 14C19.61 14 19.24 14.04 18.87 14.1C19.27 14.78 19.5 15.56 19.5 16.39V18H24V16.43ZM12 6C13.66 6 15 7.34 15 9C15 10.66 13.66 12 12 12C10.34 12 9 10.66 9 9C9 7.34 10.34 6 12 6Z"/></svg>
